X:152
T: Voltigeurs (2-54) S. 172
N: P0927
O: Lothringen
S: PINCK, Louis: Verklingende Weisen, Bd 2, Metz 1928]
R: ???, Liebe? Trinken?]
M: 2/4
L: 1/16
K: D
EF | A2AAABAG | F2D2D2D2 | E3FGBAG | G2F2z2
AB | BBAAB2cA | d2cBA2z
G | F2F2A2GE | E2A2D2

